X:1
T:Conquering Hero,The. WHG.001
C:Handel
R:march
S:W.H.Giles MS,Bampton,Oxfordshire,1839p1
O:England
H:donated by Mrs W.R.Kettlewell to VWML,Apr 1927.
A:Bampton, Oxfordshire
N:No repeat marks in MS at start or end of the tune.
N:MS has quavers for the last two notes in bars 3, 13 & 19.
N:Bar 20, A8 is A4 in MS.
Z:PJHeadford – VMP 2009
M:C|
L:1/8
Q:1/4=120
K:G
|:d4 B3c|d6 G2|ABcd c2B2|{B4}A8|Bcde d2d2|g4 d4|
c2BA A3G|G8::BABc B2B2|G2BA G2G2|c2B2 A2G2|{G4}F8|
edef e2f2|g4 e4|f2ed ^c3d|d8{dc}|{BA}d4 B3c|d4 c3G|
ABcd c2B2|{B4}A8|Bcde d2d2|g4 d4|c2BA A3G|G8:|

